Newaita/actions/24/align-vertical-center.svg

<svg height="24" viewBox="0 0 24 24" width="24" xmlns="http://www.w3.org/2000/svg"><g fill="#424242"><path d="m4.960938 12.09375c0 .273438-.222657.496094-.496094.496094h-1.984375c-.273438 0-.496094-.222656-.496094-.496094s.222656-.496094.496094-.496094h1.984375c.273437 0 .496094.222656.496094.496094zm0 0"/><path d="m21.832031 12.09375c0 .273438-.222656.496094-.496093.496094h-1.988282c-.273437 0-.496094-.222656-.496094-.496094s.222657-.496094.496094-.496094h1.988282c.273437 0 .496093.222656.496093.496094zm0 0"/><path d="m13.890625 11.597656v.992188h-3.472656v-.992188zm0 0"/><path d="m11.90625 6.140625c0-1.097656-.882812-1.984375-1.984375-1.984375h-3.96875c-1.097656 0-1.984375.886719-1.984375 1.984375v11.90625c0 1.101563.886719 1.984375 1.984375 1.984375h3.96875c1.101563 0 1.984375-.882812 1.984375-1.984375zm-1.984375.496094v10.914062c0 .277344-.21875.496094-.496094.496094h-2.976562c-.273438 0-.496094-.21875-.496094-.496094v-10.914062c0-.273438.222656-.496094.496094-.496094h2.976562c.277344 0 .496094.222656.496094.496094zm0 0"/><path d="m20.34375 9.117188c0-1.097657-.886719-1.984376-1.988281-1.984376h-2.976563c-1.097656 0-1.984375.886719-1.984375 1.984376v5.953124c0 1.101563.886719 1.984376 1.984375 1.984376h2.976563c1.101562 0 1.988281-.882813 1.988281-1.984376zm-1.988281.496093v4.960938c0 .277343-.21875.496093-.496094.496093h-1.984375c-.273438 0-.496094-.21875-.496094-.496093v-4.960938c0-.273437.222656-.496093.496094-.496093h1.984375c.277344 0 .496094.222656.496094.496093zm0 0"/></g></svg>

<svg xmlns="http://www.w3.org/2000/svg" xmlns:xlink="http://www.w3.org/1999/xlink" width="24px" height="24px" viewBox="0 0 24 24" version="1.1">
<g id="surface1">
     <defs>
  <style id="current-color-scheme" type="text/css">
   .ColorScheme-Text { color:#424242; } .ColorScheme-Highlight { color:#eeeeee; }
  </style>
 </defs>
<path style="fill:currentColor" class="ColorScheme-Text" d="M 4.960938 12.09375 C 4.960938 12.367188 4.738281 12.589844 4.464844 12.589844 L 2.480469 12.589844 C 2.207031 12.589844 1.984375 12.367188 1.984375 12.09375 C 1.984375 11.820312 2.207031 11.597656 2.480469 11.597656 L 4.464844 11.597656 C 4.738281 11.597656 4.960938 11.820312 4.960938 12.09375 Z M 4.960938 12.09375 "/>
     <defs>
  <style id="current-color-scheme" type="text/css">
   .ColorScheme-Text { color:#424242; } .ColorScheme-Highlight { color:#eeeeee; }
  </style>
 </defs>
<path style="fill:currentColor" class="ColorScheme-Text" d="M 21.832031 12.09375 C 21.832031 12.367188 21.609375 12.589844 21.335938 12.589844 L 19.347656 12.589844 C 19.074219 12.589844 18.851562 12.367188 18.851562 12.09375 C 18.851562 11.820312 19.074219 11.597656 19.347656 11.597656 L 21.335938 11.597656 C 21.609375 11.597656 21.832031 11.820312 21.832031 12.09375 Z M 21.832031 12.09375 "/>
     <defs>
  <style id="current-color-scheme" type="text/css">
   .ColorScheme-Text { color:#424242; } .ColorScheme-Highlight { color:#eeeeee; }
  </style>
 </defs>
<path style="fill:currentColor" class="ColorScheme-Text" d="M 13.890625 11.597656 L 13.890625 12.589844 L 10.417969 12.589844 L 10.417969 11.597656 Z M 13.890625 11.597656 "/>
     <defs>
  <style id="current-color-scheme" type="text/css">
   .ColorScheme-Text { color:#424242; } .ColorScheme-Highlight { color:#eeeeee; }
  </style>
 </defs>
<path style="fill:currentColor" class="ColorScheme-Text" d="M 11.90625 6.140625 C 11.90625 5.042969 11.023438 4.15625 9.921875 4.15625 L 5.953125 4.15625 C 4.855469 4.15625 3.96875 5.042969 3.96875 6.140625 L 3.96875 18.046875 C 3.96875 19.148438 4.855469 20.03125 5.953125 20.03125 L 9.921875 20.03125 C 11.023438 20.03125 11.90625 19.148438 11.90625 18.046875 Z M 9.921875 6.636719 L 9.921875 17.550781 C 9.921875 17.828125 9.703125 18.046875 9.425781 18.046875 L 6.449219 18.046875 C 6.175781 18.046875 5.953125 17.828125 5.953125 17.550781 L 5.953125 6.636719 C 5.953125 6.363281 6.175781 6.140625 6.449219 6.140625 L 9.425781 6.140625 C 9.703125 6.140625 9.921875 6.363281 9.921875 6.636719 Z M 9.921875 6.636719 "/>
     <defs>
  <style id="current-color-scheme" type="text/css">
   .ColorScheme-Text { color:#424242; } .ColorScheme-Highlight { color:#eeeeee; }
  </style>
 </defs>
<path style="fill:currentColor" class="ColorScheme-Text" d="M 20.34375 9.117188 C 20.34375 8.019531 19.457031 7.132812 18.355469 7.132812 L 15.378906 7.132812 C 14.28125 7.132812 13.394531 8.019531 13.394531 9.117188 L 13.394531 15.070312 C 13.394531 16.171875 14.28125 17.054688 15.378906 17.054688 L 18.355469 17.054688 C 19.457031 17.054688 20.34375 16.171875 20.34375 15.070312 Z M 18.355469 9.613281 L 18.355469 14.574219 C 18.355469 14.851562 18.136719 15.070312 17.859375 15.070312 L 15.875 15.070312 C 15.601562 15.070312 15.378906 14.851562 15.378906 14.574219 L 15.378906 9.613281 C 15.378906 9.339844 15.601562 9.117188 15.875 9.117188 L 17.859375 9.117188 C 18.136719 9.117188 18.355469 9.339844 18.355469 9.613281 Z M 18.355469 9.613281 "/>
</g>
</svg>
